X: 2
T: The Cliff Dwellers
R: reel
M: 4/4
L: 1/8
K: Gdor
|dGGG FGAc|dggg {a}b2 ag|gagf dgfd|c<FAF Acfe||
dG G/G/G FGAc|dg g/g/g {a}b2 ag|gagf dgfd|cFAF G2 Ac||
dG G/G/G FGAc|dg g/g/g {a}b2 ag|gagf dgfd|cFAF Acfe||
dG G/G/G FGAc|dg g/g/g {a}b2 ag|gagf dgfd|cFAF G3 a||
gfdc A~G3|DDGG AGGA|Bcdg fcdB|AF F/F/F [F3C3] a||
gfdc A~G3|DG[G,G]A {a}b2 ag|gagf dgfd|cFAF G3 a||
gfdc A~G3|D2 GG AGGA|Bcdg fcdB|AF F/F/F [F3C3] a||
gfdc A~G3|DGGA {a}b2 ag|gagf dgfd|cFAF G2 Ac||

composer: Liz Carroll
